svg/thermometer-empty.svg

<svg xmlns="http://www.w3.org/2000/svg" viewBox="0 0 26 64" enable-background="new 0 0 26 64"><style type="text/css">.st0{fill:#333333;}</style><title>thermometer-empty</title><desc>Created with Sketch.</desc><path class="st0" d="M22 41.6v-32.6c0-5-4-9-9-9s-9 4-9 9v32.6c-2.5 2.4-4 5.7-4 9.4 0 7.2 5.8 13 13 13s13-5.8 13-13c0-3.7-1.5-7-4-9.4zm-9 18.4c-5 0-9-4-9-9 0-2.5 1-4.8 2.8-6.5l1.2-1.2v-34.3c0-2.8 2.2-5 5-5s5 2.2 5 5v34.3l1.2 1.2c1.8 1.7 2.8 4 2.8 6.5 0 5-4 9-9 9zM8.1 46c-1.3 1.3-2.1 3-2.1 5 0 3.9 3.1 7 7 7s7-3.1 7-7c0-2-.8-3.7-2.1-5h-9.8z"/></svg>

<svg xmlns="http://www.w3.org/2000/svg" viewBox="0 0 26 64"><path d="M22 41.6V9c0-5-4-9-9-9S4 4 4 9v32.6C1.5 44 0 47.3 0 51c0 7.2 5.8 13 13 13s13-5.8 13-13c0-3.7-1.5-7-4-9.4zM13 60c-5 0-9-4-9-9 0-2.5 1-4.8 2.8-6.5L8 43.3V9c0-2.8 2.2-5 5-5s5 2.2 5 5v34.3l1.2 1.2c1.8 1.7 2.8 4 2.8 6.5 0 5-4 9-9 9zM8.1 46C6.8 47.3 6 49 6 51c0 3.9 3.1 7 7 7s7-3.1 7-7c0-2-.8-3.7-2.1-5H8.1z" fill="#333"/></svg>
